X: 21815
T: Kingussie, The
R: waltz
M: 3/4
K: Dmajor
A2|D2 F2 A2|d3 c d2|e3 d B2|Add2 d2|
D3 F A2|B2 A2 F2|F3 E D2|E4 A2|
D2 F2 A2|d3 c d2|e3 d B2|Add2 B2|
Add2 F2|A3 G E2|EDD2 D2|D4 A2|
d3 c d2|f2 e2 d2|e3 d B2|Add2 B2|
A2 d2 f2|b2 a2 f2|f3 e d2|e4 fg|
a3 ^g a2|f2 e2 d2|e3 d B2|Add2 B2|
Add2 F2|A2 G2 E2|EDD2 D2|D4||

